X:1
T:Partita I Menuet I & II
T:BWV 825
T:J. S. Bach
%%score { ( 1 4 ) | ( 2 3 ) }
L:1/8
Q:1/4=184
M:3/4
K:Bb
V:1 treble nm="Harp"
V:4 treble 
V:2 bass 
V:3 bass 
V:1
"^Presto" dB AB FB | dB eB fB | cA GA FA | cF dF eF | d_A eG fF | gf ae bd | ce dc dB | cA GA Fe | %8
 dB AB FB | dB eB fB | cA GA FA | cF dF eF | dc =eB fA | GB FB =EB | Ac AF C=E | F3 G/A/ B/A/B/c/ | %16
 dB AB FB | dB eB fB | cA GA FA | cF dF eF | d_A eG fF | gf ae bd | ce dc dB | cA GA Fe | %24
 dB AB FB | dB eB fB | cA GA FA | cF dF eF | dc =eB fA | GB FB =EB | Ac AF C=E | F6 | af =ef cf | %33
 af bf af | ge de ce | fd fc f=B | ce _gc ac | Ac _Gc Dc | Be dB cA | G3 A/B/ A/G/F/E/ | DB AB fB | %41
 _aB gB fB | EB AB gB | EB FB GB | cB d_A eG | fe gd ac | ba gf ed | cB AG FE | Df gf cf | %49
 =Bf Af Gf | Ce fe Be | Ae Ge Fe | df dB FA | B2- B/c/d/e/ f/=e/f/g/ | af =ef cf | af bf af | %56
 ge de ce | fd fc f=B | ce _gc ac | Ac _Gc Dc | Be dB cA | G3 A/B/ A/G/F/E/ | DB AB fB | %63
 _aB gB fB | EB AB gB | EB FB GB | cB d_A eG | fe gd ac | ba gf ed | cB AG FE | Df gf cf | %71
 =Bf Af Gf | Ce fe Be | Ae Ge Fe | df dB FA | B6 | B4 F2 | G2 _A2 z2 | G2 e2 d2 | c2 BA GF | %80
 B4 F2 | G2 _A2 z2 | G2 e2 d2 |{d} c6 | B4 F2 | G2 _A2 z2 | G2 e2 d2 | c2 BA GF | B4 F2 | %89
 G2 _A2 z2 | G2 e2 d2 |{d} c6 | f4 c2 | d2 e2 z2 | ^F2 d2 c2 | B2 AB G2 | e4 de/4d/4e/4d/4 | %97
 e/4d/4e/4f/4g f2 z2 |{B} A4 B2 | B6 | f4 c2 | d2 e2 z2 | ^F2 d2 c2 | B2 AB G2 | e4 de/4d/4e/4d/4 | %105
 e/4d/4e/4f/4g f2 z2 |{B} A4 B2 | B6 | dB AB FB | dB eB fB | cA GA FA | cF dF eF | d_A eG fF | %113
 gf ae bd | ce dc dB | cA GA Fe | dB AB FB | dB eB fB | cA GA FA | cF dF eF | dc =eB fA | %121
 GB FB =EB | Ac AF C=E | F6 | af =ef cf | af bf af | ge de ce | fd fc f=B | ce _gc ac | Ac _Gc Dc | %130
 Be dB cA | G3 A/B/ A/G/F/E/ | DB AB fB | _aB gB fB | EB AB gB | EB FB GB | cB d_A eG | fe gd ac | %138
 ba gf ed | cB AG FE | Df gf cf | =Bf Af Gf | Ce fe Be | Ae Ge Fe | df dB FA | !fermata!B6 |] %146
V:2
 B,2 F,2 D,2 | B,,2 C,2 D,2 | A,,2 C,2 F,2 | A,2 B,A, G,F, | B,2 C2 D2 | E2 F2 G2 | A2 B2 B,2 | %7
 F2 F,2 A,2 | B,2 F,2 D,2 | B,,2 C,2 D,2 | A,,2 C,2 F,2 | A,2 B,A, G,F, | B,2 C2 D2 | %13
 =E,2 D,2 C,2 | F,2 B,,2 C,2 | F,,A,, C,F, G,A, | B,2 F,2 D,2 | B,,2 C,2 D,2 | A,,2 C,2 F,2 | %19
 A,2 B,A, G,F, | B,2 C2 D2 | E2 F2 G2 | A2 B2 B,2 | F2 F,2 A,2 | B,2 F,2 D,2 | B,,2 C,2 D,2 | %26
 A,,2 C,2 F,2 | A,2 B,A, G,F, | B,2 C2 D2 | =E,2 D,2 C,2 | F,2 B,,2 C,2 | F,2 C,2 A,,2 | %32
 F,,2 C,2 F,2 | E,2 D,2 B,,2 | E,2 G,2 _A,2 | D,2 G,2 G,,2 | C,2 A,2 G,2 | _G,2 D,2 G,2 | %38
 G,2 B,,2 D,2 | G,,A,, B,,C, D,E, | F,2 E,2 D,2 | F,2 E,2 D,2 | G,2 F,2 E,2 | G,2 F,2 E,2 | %44
 _A,2 B,2 C2 | D2 E2 F2 | G2 A2 B2 | F2 F,2 A,2 | D2 D,2 F,2 | G,2 A,2 =B,2 | C2 C,2 E,2 | %51
 F,2 G,2 A,2 | B,2 E,2 F,2 | B,,D, C,B,, A,,G,, | F,,2 C,2 F,2 | E,2 D,2 B,,2 | E,2 G,2 _A,2 | %57
 D,2 G,2 G,,2 | C,2 A,2 G,2 | _G,2 D,2 G,2 | G,2 B,,2 D,2 | G,,A,, B,,C, D,E, | F,2 E,2 D,2 | %63
 F,2 E,2 D,2 | G,2 F,2 E,2 | G,2 F,2 E,2 | _A,2 B,2 C2 | D2 E2 F2 | G2 A2 B2 | F2 F,2 A,2 | %70
 D2 D,2 F,2 | G,2 A,2 =B,2 | C2 C,2 E,2 | F,2 G,2 A,2 | B,2 E,2 F,2 | B,,6 | z2 C2 D2 | E4 D2- | %78
 D2 C2 B,2 | F,4 E2- | E2 C2 D2 | E4 D2- | D2 C2 F2 | F6 | z2 C2 D2 | E4 D2- | D2 C2 B,2 | %87
 F,4 E2- | E2 C2 D2 | E4 D2- | D2 C2 F2 | F6 | C4 F2- | F2 C4- | C2 B,A, G,^F, | G,6- | G,4 B,2- | %97
 B,2 C2 D2- | D2 C2 E2 | D6 | C4 F2- | F2 C4- | C2 B,A, G,^F, | G,6- | G,4 B,2- | B,2 C2 D2- | %106
 D2 C2 E2 | D6 | B,2 F,2 D,2 | B,,2 C,2 D,2 | A,,2 C,2 F,2 | A,2 B,A, G,F, | B,2 C2 D2 | E2 F2 G2 | %114
 A2 B2 B,2 | F2 F,2 A,2 | B,2 F,2 D,2 | B,,2 C,2 D,2 | A,,2 C,2 F,2 | A,2 B,A, G,F, | B,2 C2 D2 | %121
 =E,2 D,2 C,2 | F,2 B,,2 C,2 | F,2 C,2 A,,2 | F,,2 C,2 F,2 | E,2 D,2 B,,2 | E,2 G,2 _A,2 | %127
 D,2 G,2 G,,2 | C,2 A,2 G,2 | _G,2 D,2 G,2 | G,2 B,,2 D,2 | G,,A,, B,,C, D,E, | F,2 E,2 D,2 | %133
 F,2 E,2 D,2 | G,2 F,2 E,2 | G,2 F,2 E,2 | _A,2 B,2 C2 | D2 E2 F2 | G2 A2 B2 | F2 F,2 A,2 | %140
 D2 D,2 F,2 | G,2 A,2 =B,2 | C2 C,2 E,2 | F,2 G,2 A,2 | B,2 E,2 F,2 | !fermata!B,,6 |] %146
V:3
 x6 | x6 | x6 | x6 | x6 | x6 | x6 | x6 | x6 | x6 | x6 | x6 | x6 | x6 | x6 | x6 | x6 | x6 | x6 | %19
 x6 | x6 | x6 | x6 | x6 | x6 | x6 | x6 | x6 | x6 | x6 | x6 | x6 | x6 | x6 | x6 | x6 | x6 | x6 | %38
 x6 | x6 | x6 | x6 | x6 | x6 | x6 | x6 | x6 | x6 | x6 | x6 | x6 | x6 | x6 | x6 | x6 | x6 | x6 | %57
 x6 | x6 | x6 | x6 | x6 | x6 | x6 | x6 | x6 | x6 | x6 | x6 | x6 | x6 | x6 | x6 | x6 | x6 | x6 | %76
 B,6- | B,6 | E4 F2- | F2 C2 z2 | B,6- | B,6 | E4 B,2 | F,6 | B,6- | B,6 | E4 F2- | F2 C2 z2 | %88
 B,6- | B,6 | E4 B,2 | F,6 | F,2 G,2 A,2 | B,4 B,2 | A,2 ^F,2 D,2 | G,2 D,2 G,,2 | z2 A,2 F,2 | %97
 E,4 D,2 | F,6 | [B,,B,]6 | F,2 G,2 A,2 | B,4 B,2 | A,2 ^F,2 D,2 | G,2 D,2 G,,2 | z2 A,2 F,2 | %105
 E,4 D,2 | F,6 | [B,,B,]6 | x6 | x6 | x6 | x6 | x6 | x6 | x6 | x6 | x6 | x6 | x6 | x6 | x6 | x6 | %122
 x6 | x6 | x6 | x6 | x6 | x6 | x6 | x6 | x6 | x6 | x6 | x6 | x6 | x6 | x6 | x6 | x6 | x6 | x6 | %141
 x6 | x6 | x6 | x6 | x6 |] %146
V:4
 x6 | x6 | x6 | x6 | x6 | x6 | x6 | x6 | x6 | x6 | x6 | x6 | x6 | x6 | x6 | x6 | x6 | x6 | x6 | %19
 x6 | x6 | x6 | x6 | x6 | x6 | x6 | x6 | x6 | x6 | x6 | x6 | x6 | x6 | x6 | x6 | x6 | x6 | x6 | %38
 x6 | x6 | x6 | x6 | x6 | x6 | x6 | x6 | x6 | x6 | x6 | x6 | x6 | x6 | x6 | x6 | x6 | x6 | x6 | %57
 x6 | x6 | x6 | x6 | x6 | x6 | x6 | x6 | x6 | x6 | x6 | x6 | x6 | x6 | x6 | x6 | x6 | x6 | x6 | %76
 x6 | E2 F4 | G2 A2 B2 | A2 z4 | F4 z2 | E2 F4 | G2 A2 B2 | A6 | x6 | E2 F4 | G2 A2 B2 | A2 z4 | %88
 F4 z2 | E2 F4 | G2 A2 B2 | A6 | A2 B2 c2 | B2 A2 G2 | ^F2 D2 A2 | G2 ^F2 G2 | B4 _A2 | G2 A2 B2 | %98
 F4 F2 | F6 | A2 B2 c2 | B2 A2 G2 | ^F2 D2 A2 | G2 ^F2 G2 | B4 _A2 | G2 A2 B2 | F4 F2 | F6 | x6 | %109
 x6 | x6 | x6 | x6 | x6 | x6 | x6 | x6 | x6 | x6 | x6 | x6 | x6 | x6 | x6 | x6 | x6 | x6 | x6 | %128
 x6 | x6 | x6 | x6 | x6 | x6 | x6 | x6 | x6 | x6 | x6 | x6 | x6 | x6 | x6 | x6 | x6 | x6 |] %146

